X:1
T:The Old Fashioned Way
T:Walter Stillman Martin
T:The Old Fashioned Way
T:Public Domain
T:Public Domain
C:Walter Stillman Martin
Z:Public Domain
%%score ( 1 2 ) ( 3 4 )
L:1/8
M:3/4
K:G
V:1 treble 
V:2 treble 
V:3 bass 
V:4 bass 
V:1
 D2 | [DG]3 [DF] [DG]2 | [DA]2 [CD]2 [CD]2 | D2 [DF]2 [Fc]2 | [GB]4 ([GB][Gc]) | %5
w: 1.~They|me old- fa-|shioned be- cause|I be- lieve|Bi- ble *|
w: 2.~Old-|shioned, be- cause|I be- lieve|and a- ccept|what has *|
w: 3.~Old-|shioned, be- cause|I am bound|to do right,|walk in *|
w: 4.~Old-|shioned, be- cause|I am look-|ing a- bove|Je- sus, *|
 [Gd]2 [DG]2 [DG]2 | [^CG]2 [CF]2 [CG]2 | [DA]6- | [DA]4 D2 | [DG]3 [DF] [DG]2 | %10
w: is God’s ho-|ly Word, That|Je-|* sus,|lived a- mong|
w: been spok- en|from Heav’n; Old-|fa-|* shioned|cause at the|
w: the straight nar-|row way; Be-|cause|* I|giv- en my|
w: my glor- i-|fied Lord; Be-|cause|* I|lieve He is|
 [DA]2 [CD]2 [CD]2 | D2 [DF]2 [Fc]2 | [GB]4 ([GB][Gc]) | [Gd]2 [DG]2 [EA]2 | (D2 G2) [FA]2 | %15
w: men long a-|go, Is~di- vine,|the Christ *|of God. *||
w: cross I was|saved, At~the cross|my sins *|for- giv’n. My|sin * was|
w: whole life to|God, Old- fa-|be- cause *|I pray. *||
w: com- ing a-|gain, Ful- fill-|His ho- *|ly Word. *||
 [DG]6- | [DG]4 ||"^Refrain" [Gd]2 | [Gd]3 [GB] [GB]2 | [GB]2 [FA]2 [GB]2 | [Fc]3 [FA] [FA]2 | %21
w: ||||||
w: fa-||shioned,|My guilt was|old- fa- shioned,|God’s love was|
w: ||||||
w: ||||||
 [FA]2 [DG]2 [FA]2 | [GB]3 [DG] [DG]2 | [^CG]2 [CF]2 [CG]2 | [DA]6- | [DA]4 DD | %26
w: |||||
w: old- fa- shioned,|I know; And|the way I|was|* saved was|
w: |||||
w: |||||
 [DG]2 [DF]2 [DG]2 | [DA]4 DD | D2 [DF]2 [Fc]2 | [GB]4 [GB][Gc] | [Gd]2 [DG]2 [EA]2 | %31
w: |||||
w: fa- shioned way,|Through the blood|whit- er than|||
w: |||||
w: |||||
 [DB]2 [GB]2 [FA]2 | [DG]6- | [DG]4 |] %34
w: |||
w: |||
w: |||
w: |||
V:2
 D2 | x6 | x6 | D2 x4 | x6 | x6 | x6 | x6 | x4 D2 | x6 | x6 | D2 x4 | x6 | x6 | B4 x2 | x6 | x4 || %17
w: call|||That~the|||||Who|||and||||||
w: fa-|||Only|||||be-|||had|||old-|||
w: fa-|||To|||||have|||shioned||||||
w: fa-|||To|||||be-|||ing||||||
 x2 | x6 | x6 | x6 | x6 | x6 | x6 | x6 | x4 DD | x6 | x4 DD | D2 x4 | x6 | x6 | x6 | x6 | x4 |] %34
w: |||||||||||||||||
w: ||||||||the old-||that makes|snow.||||||
w: |||||||||||||||||
w: |||||||||||||||||
V:3
 [G,B,]2 | [G,B,]3 [G,A,] [G,B,]2 | [D,C]2 [D,F,]2 [D,F,]2 | [D,F,]2 [D,A,]2 [D,D]2 | %4
 [G,D]4 ([G,D][G,A,]) | [G,B,]2 [G,B,]2 [G,B,]2 | [A,,B,]2 [A,,A,]2 [A,,G,]2 | [D,F,]6- | %8
 [D,F,]4 [D,C]2 | [G,B,]3 [G,A,] [G,B,]2 | [D,C]2 [D,F,]2 [D,F,]2 | [D,F,]2 [D,A,]2 [D,D]2 | %12
 [G,D]4 ([G,D][G,A,]) | [G,B,]2 [B,,G,]2 [C,G,]2 | (G,2 D2) [D,C]2 | [G,B,]6- | [G,B,]4 || %17
 [G,B,]2 | [G,B,]3 [G,D] [G,D]2 | [G,D]2 [CD]2 [B,D]2 | [A,D]3 [D,D] [D,D]2 | %21
 [C,D]2 [B,,D]2 [D,D]2 | [G,D]3 [G,B,] [G,B,]2 | [A,,B,]2 [A,,A,]2 [A,,G,]2 | [D,F,]6- | %25
 [D,F,]4 [D,C][D,C] | [G,B,]2 [G,A,]2 [G,B,]2 | [D,C]4 [D,F,][D,F,] | [D,F,]2 [D,A,]2 [D,D]2 | %29
 [G,D]4 [G,D][G,A,] | [G,B,]2 [B,,G,]2 [C,G,]2 | [D,G,]2 [D,D]2 [D,C]2 | [G,B,]6- | [G,B,]4 |] %34
V:4
 x2 | x6 | x6 | x6 | x6 | x6 | x6 | x6 | x6 | x6 | x6 | x6 | x6 | x6 | D,4 x2 | x6 | x4 || x2 | %18
 x6 | x6 | x6 | x6 | x6 | x6 | x6 | x6 | x6 | x6 | x6 | x6 | x6 | x6 | x6 | x4 |] %34

